svgs/podcastaddict.svg

<svg xmlns="http://www.w3.org/2000/svg" viewBox="0 0 192 192"><path d="M96.057 83.045a12.936 12.936 0 0 0-12.303 8.942 12.94 12.94 0 0 0 12.303 16.94 12.937 12.937 0 0 0 12.303-16.94 12.937 12.937 0 0 0-12.303-8.942Zm31.417 12.941a31.42 31.42 0 0 0-31.417-31.428m-8.554 1.179a31.429 31.429 0 0 0-22.73 33.139 31.426 31.426 0 0 0 28.419 28.407 31.42 31.42 0 0 0 33.11-22.763M64.64 169.025V95.986m81.315 0a49.93 49.93 0 0 0-6.685-24.957 49.896 49.896 0 0 0-43.213-24.958" fill="none" stroke="#000" stroke-width="12" stroke-linecap="round" stroke-linejoin="round"/><path d="M96.057 16.491a79.48 79.48 0 0 0-55.013 22.08 79.533 79.533 0 0 0-24.432 54.024 79.539 79.539 0 0 0 19.74 55.911 79.485 79.485 0 0 0 52.931 26.69 79.474 79.474 0 0 0 56.672-17.381v17.666h29.569V95.986a79.513 79.513 0 0 0-10.647-39.747 79.477 79.477 0 0 0-29.087-29.097 79.445 79.445 0 0 0-39.733-10.651Z" fill="none" stroke="#000" stroke-width="12" stroke-linecap="round" stroke-linejoin="round"/></svg>

<svg
    xmlns="http://www.w3.org/2000/svg"
    viewBox="0 0 192 192"
    id="vector">
    <path
        id="path"
        d="M 96.057 83.045 C 93.325 83.045 90.663 83.911 88.453 85.517 C 86.243 87.123 84.598 89.388 83.754 91.987 C 82.909 94.586 82.909 97.386 83.754 99.985 C 84.598 102.584 86.243 104.85 88.453 106.456 C 90.663 108.062 93.325 108.927 96.057 108.927 C 98.788 108.927 101.451 108.062 103.661 106.456 C 105.871 104.85 107.516 102.584 108.36 99.985 C 109.204 97.386 109.204 94.586 108.36 91.987 C 107.516 89.388 105.871 87.123 103.661 85.517 C 101.451 83.911 98.788 83.045 96.057 83.045 Z M 127.474 95.986 C 127.474 87.654 124.162 79.655 118.272 73.763 C 112.383 67.871 104.386 64.558 96.057 64.558 M 87.503 65.737 C 80.444 67.736 74.303 72.146 70.152 78.198 C 66.001 84.249 64.097 91.568 64.773 98.876 C 65.449 106.184 68.662 113.029 73.851 118.217 C 79.041 123.404 85.886 126.613 93.192 127.283 C 100.498 127.954 107.813 126.043 113.859 121.887 C 119.905 117.73 124.309 111.583 126.302 104.52 M 64.64 169.025 L 64.64 95.986 M 145.955 95.986 C 145.955 87.225 143.649 78.616 139.27 71.029 C 134.891 63.441 128.591 57.139 121.006 52.758 C 113.421 48.378 104.815 46.071 96.057 46.071"
        fill="none"
        stroke="#000000"
        stroke-width="12"
        stroke-linecap="round"
        stroke-linejoin="round"/>
    <path
        id="path_1"
        d="M 96.057 16.491 C 75.566 16.478 55.844 24.394 41.044 38.571 C 26.245 52.748 17.486 72.116 16.612 92.595 C 15.738 113.075 22.815 133.119 36.352 148.506 C 49.89 163.893 68.866 173.462 89.283 175.196 C 109.701 176.93 130.018 170.699 145.955 157.815 L 145.955 175.481 L 175.524 175.481 L 175.524 95.986 C 175.524 82.033 171.852 68.323 164.877 56.239 C 157.903 44.155 147.87 34.118 135.79 27.142 C 123.711 20.165 110.005 16.491 96.057 16.491 Z"
        fill="none"
        stroke="#000000"
        stroke-width="12"
        stroke-linecap="round"
        stroke-linejoin="round"/>
</svg>
